src/assets/icons/youtube.svg

<?xml version="1.0" encoding="UTF-8" standalone="no"?>
<svg width="46px" height="46px" viewBox="0 0 46 46" version="1.1" xmlns="http://www.w3.org/2000/svg" xmlns:xlink="http://www.w3.org/1999/xlink" xmlns:sketch="http://www.bohemiancoding.com/sketch/ns">
    <!-- Generator: Sketch 3.3.3 (12081) - http://www.bohemiancoding.com/sketch -->
    <title>You Tube</title>
    <desc>Created with Sketch.</desc>
    <defs></defs>
    <g id="Page-1" stroke-width="1" fill-rule="evenodd" sketch:type="MSPage">
        <g id="You-Tube" sketch:type="MSLayerGroup" transform="translate(0.000000, 1.000000)">
            <circle id="Oval-1" stroke="currentColor" sketch:type="MSShapeGroup" cx="22.8893723" cy="22.32925" r="22"></circle>
            <path d="M34.1521637,30.2731375 L34.1521637,14.3849719 C34.1521637,12.1450292 32.4476981,10.32925 30.3452375,10.32925 L15.4335072,10.32925 C13.3310466,10.32925 11.626581,12.1450292 11.626581,14.3849719 L11.626581,30.2731375 C11.626581,32.5130802 13.3310466,34.32925 15.4335072,34.32925 L30.3452375,34.32925 C32.4476981,34.32925 34.1521637,32.5130802 34.1521637,30.2731375 L34.1521637,30.2731375 Z M21.5424774,13.4354862 L20.2715491,17.5720569 L20.2715491,20.5056593 L19.1795038,20.5056593 L19.1795038,17.704071 L17.8800637,13.4354862 L18.9799205,13.4354862 L19.6888125,16.2616807 L19.757163,16.2616807 L20.4328563,13.4354862 L21.5424774,13.4354862 L21.5424774,13.4354862 Z M24.3077424,19.2058286 C24.3077424,19.6522548 24.1819775,20.0022093 23.9308383,20.2560824 C23.6793086,20.5103462 23.3336504,20.6372828 22.8930828,20.6372828 C22.4685287,20.6372828 22.1291198,20.5060499 21.874856,20.2439746 C21.6202017,19.9818994 21.4928745,19.6292109 21.4928745,19.1862999 L21.4928745,16.4827456 C21.4928745,16.0785014 21.6233263,15.7570589 21.8846204,15.5176369 C22.1455239,15.278215 22.4962595,15.1583087 22.9372177,15.1583087 C23.3383373,15.1583087 23.6672008,15.2848547 23.9234174,15.5371656 C24.179634,15.7894765 24.3077424,16.1144342 24.3077424,16.5120387 L24.3077424,19.2058286 L24.3077424,19.2058286 Z M27.898681,20.5056593 L26.9288854,20.5056593 L26.9288854,19.929953 C26.7500025,20.1420348 26.5640892,20.3037325 26.3711456,20.4146555 C26.1778114,20.525188 25.9899452,20.5810401 25.8083282,20.5810401 C25.5841387,20.5810401 25.41502,20.5033159 25.301363,20.3482579 C25.1877059,20.1928094 25.1306821,19.9600272 25.1306821,19.6495208 L25.1306821,15.2903228 L26.1004777,15.2903228 L26.1004777,19.2882397 C26.1004777,19.4120517 26.1207875,19.5011026 26.1614072,19.5565642 C26.2020269,19.6120257 26.2676434,19.6397564 26.3586472,19.6397564 C26.4301223,19.6397564 26.5203449,19.6030425 26.6293151,19.5300051 C26.7378947,19.4565772 26.8378817,19.3628394 26.9288854,19.2491823 L26.9288854,15.2903228 L27.898681,15.2903228 L27.898681,20.5056593 L27.898681,20.5056593 Z M30.880324,26.6177541 C30.8834486,27.6152805 30.8502498,28.6128068 30.7736973,29.6103332 C30.7736973,30.8699348 29.7398475,31.8916768 28.4657947,31.8916768 C26.647672,31.9678387 24.7869768,32.0014281 22.8895676,31.9979129 C20.9917679,32.0014281 19.1314632,31.9678387 17.31295,31.8916768 C16.0388971,31.8916768 15.0050474,30.8699348 15.0050474,29.6103332 C14.9284949,28.6128068 14.8952961,27.6152805 14.8984206,26.6177541 C14.8952961,25.6202277 14.9284949,24.6227014 15.0050474,23.625175 C15.0050474,22.3655734 16.0388971,21.3438314 17.31295,21.3438314 C19.1314632,21.2676695 20.9917679,21.2340801 22.8895676,21.2375953 C24.7869768,21.2340801 26.647672,21.2676695 28.4657947,21.3438314 C29.7398475,21.3438314 30.7736973,22.3655734 30.7736973,23.625175 C30.8502498,24.6227014 30.8834486,25.6202277 30.880324,26.6177541 L30.880324,26.6177541 Z M29.194606,29.7864821 C29.4375432,29.5162048 29.5594023,29.1135229 29.5594023,28.5788269 L29.5594023,28.187081 L28.5614854,28.187081 L28.5614854,28.5499244 C28.5614854,28.8565251 28.5290677,29.0549368 28.4654041,29.1447688 C28.40135,29.2346009 28.2888646,29.2795169 28.1279481,29.2795169 C27.9736713,29.2795169 27.8647011,29.2263988 27.8006469,29.1201626 C27.7365928,29.0139265 27.7045657,28.8237169 27.7045657,28.5499244 L27.7045657,27.5660681 L29.5594023,27.5660681 L29.5594023,26.238116 C29.5594023,25.7432586 29.4398866,25.3636205 29.2020269,25.099983 C28.9637767,24.8359549 28.6231961,24.7039408 28.1795038,24.7039408 C27.745576,24.7039408 27.3917158,24.8465004 27.1179233,25.1316195 C26.8437403,25.4167386 26.7066487,25.7854406 26.7066487,26.238116 L26.7066487,28.5788269 C26.7066487,29.0811052 26.8316325,29.4755851 27.0808188,29.7622665 C27.3303957,30.048948 27.672148,30.1922887 28.1060759,30.1922887 C28.5888255,30.1922887 28.9516689,30.05715 29.194606,29.7864821 L29.194606,29.7864821 Z M27.7045657,26.7564079 L27.7045657,26.2283517 C27.7045657,26.0100207 27.7381551,25.8537911 27.8057244,25.7588816 C27.8729031,25.6647532 27.9834356,25.6171031 28.1377124,25.6171031 C28.2853494,25.6171031 28.3931479,25.6647532 28.4603267,25.7588816 C28.5275054,25.8537911 28.5614854,26.0100207 28.5614854,26.2283517 L28.5614854,26.7564079 L27.7045657,26.7564079 L27.7045657,26.7564079 Z M25.7473986,29.8220244 C25.899332,29.625175 25.9754939,29.3416182 25.9754939,28.9705727 L25.9754939,26.0771995 C25.9754939,25.6514737 25.8942545,25.3269066 25.7325568,25.1042793 C25.5712497,24.881652 25.3369052,24.7699478 25.0299139,24.7699478 C24.8795429,24.7699478 24.7311247,24.8113487 24.5838783,24.8941504 C24.4370224,24.9773427 24.2983686,25.0980301 24.1679168,25.2573844 L24.1679168,22.9815088 L23.1887474,22.9815088 L23.1887474,30.0512914 L24.1679168,30.0512914 L24.1679168,29.6501718 C24.295244,29.8091354 24.4331167,29.9266982 24.5815348,30.0028602 C24.7303436,30.0790222 24.8990716,30.1172984 25.0888906,30.1172984 C25.3759626,30.1172984 25.5954653,30.0188737 25.7473986,29.8220244 L25.7473986,29.8220244 Z M24.9771864,28.8287943 C24.9771864,28.9951789 24.9494557,29.1150852 24.893213,29.1881225 C24.8373609,29.2615505 24.7502629,29.2982645 24.6319189,29.2982645 C24.5495077,29.2982645 24.4713929,29.2795169 24.3971838,29.2420218 C24.3229747,29.2045267 24.2468128,29.1435971 24.1679168,29.0588425 L24.1679168,25.8084845 C24.2335333,25.7370094 24.3003214,25.6838913 24.3675002,25.6499114 C24.4350695,25.6155408 24.50342,25.5983556 24.5725516,25.5983556 C24.7041751,25.5983556 24.8045527,25.6440528 24.8736843,25.7354471 C24.9428159,25.8264509 24.9771864,25.9600272 24.9771864,26.1361762 L24.9771864,28.8287943 L24.9771864,28.8287943 Z M21.2729813,30.0512914 L22.2427769,30.0512914 L22.2427769,24.8359549 L21.2729813,24.8359549 L21.2729813,28.7948144 C21.1819775,28.908862 21.0819905,29.0022093 20.9734109,29.0756372 C20.8644407,29.1486746 20.7742181,29.1853885 20.702743,29.1853885 C20.6117392,29.1853885 20.5461228,29.1576578 20.5055031,29.1021962 C20.4648833,29.0467347 20.4445735,28.9576838 20.4445735,28.8338718 L20.4445735,24.8359549 L19.4747779,24.8359549 L19.4747779,29.1951529 C19.4747779,29.5056593 19.5318017,29.7384415 19.6454588,29.89389 C19.7591159,30.048948 19.9282345,30.1266722 20.152424,30.1266722 C20.334041,30.1266722 20.5219072,30.0708201 20.7152414,29.9602876 C20.9085756,29.8493646 21.0940983,29.6876669 21.2729813,29.4755851 L21.2729813,30.0512914 L21.2729813,30.0512914 Z M18.358517,24.0075471 L19.4880574,24.0075471 L19.4880574,22.9815088 L16.1365407,22.9815088 L16.1365407,24.0075471 L17.2664717,24.0075471 L17.2664717,30.0512914 L18.358517,30.0512914 L18.358517,24.0075471 L18.358517,24.0075471 Z M23.2031987,19.6139786 C23.2805324,19.5339109 23.3191992,19.4241595 23.3191992,19.2839434 L23.3191992,16.4432977 C23.3191992,16.3296406 23.2797512,16.2374651 23.2008552,16.1671617 C23.1219593,16.097249 23.0184571,16.0620973 22.8903488,16.0620973 C22.7720048,16.0620973 22.675533,16.097249 22.6017145,16.1671617 C22.527896,16.2374651 22.4907914,16.3296406 22.4907914,16.4432977 L22.4907914,19.2839434 C22.4907914,19.4272841 22.525162,19.5382072 22.5942936,19.6167126 C22.6634252,19.6948274 22.7618499,19.7334942 22.8903488,19.7334942 C23.0215817,19.7334942 23.125865,19.6940463 23.2031987,19.6139786 L23.2031987,19.6139786 Z" id="Fill-5" fill="currentColor" sketch:type="MSShapeGroup"></path>
        </g>
    </g>
</svg>

<svg width="46" height="46" xmlns="http://www.w3.org/2000/svg"><g transform="translate(0 1)" fill-rule="evenodd"><circle stroke="currentColor" cx="22.889" cy="22.329" r="22"/><path d="M34.152 30.273V14.385c0-2.24-1.704-4.056-3.807-4.056H15.434c-2.103 0-3.807 1.816-3.807 4.056v15.888c0 2.24 1.704 4.056 3.807 4.056h14.911c2.103 0 3.807-1.816 3.807-4.056zm-12.61-16.838l-1.27 4.137v2.934H19.18v-2.802l-1.3-4.269h1.1l.709 2.827h.068l.676-2.827h1.11zm2.766 5.77c0 .447-.126.797-.377 1.051-.252.254-.597.381-1.038.381-.424 0-.764-.131-1.018-.393-.255-.262-.382-.615-.382-1.058v-2.703c0-.404.13-.726.392-.965.26-.24.611-.36 1.052-.36.401 0 .73.127.986.38.257.251.385.576.385.974v2.694zm3.59 1.3h-.97v-.575a2.136 2.136 0 01-.557.485c-.193.11-.381.166-.563.166-.224 0-.393-.078-.507-.233-.113-.155-.17-.388-.17-.698v-4.36h.97v3.998c0 .124.02.213.06.269.041.055.107.083.198.083.071 0 .161-.037.27-.11.109-.073.209-.167.3-.28v-3.96h.97v5.216zm2.982 6.113c.003.997-.03 1.995-.106 2.992 0 1.26-1.034 2.282-2.308 2.282-1.818.076-3.679.11-5.576.106-1.898.003-3.759-.03-5.577-.106-1.274 0-2.308-1.022-2.308-2.282a37.552 37.552 0 01-.107-2.992c-.003-.998.03-1.995.107-2.993 0-1.26 1.034-2.281 2.308-2.281 1.818-.076 3.679-.11 5.577-.106 1.897-.004 3.758.03 5.576.106 1.274 0 2.308 1.022 2.308 2.281.076.998.11 1.995.106 2.993zm-1.685 3.168c.243-.27.364-.672.364-1.207v-.392h-.998v.363c0 .307-.032.505-.096.595-.064.09-.176.135-.337.135-.154 0-.263-.054-.327-.16-.064-.106-.096-.296-.096-.57v-.984h1.854v-1.328c0-.495-.12-.874-.357-1.138-.238-.264-.579-.396-1.022-.396-.434 0-.788.143-1.062.428-.274.285-.411.653-.411 1.106v2.34c0 .503.125.898.374 1.184.25.287.591.43 1.025.43.483 0 .846-.135 1.089-.406zm-1.49-3.03v-.528c0-.218.033-.374.1-.47.068-.093.178-.14.333-.14.147 0 .255.047.322.14.068.096.101.252.101.47v.528h-.856zm-1.958 3.066c.152-.197.228-.48.228-.851v-2.894c0-.426-.08-.75-.242-.973-.162-.222-.396-.334-.703-.334a.9.9 0 00-.446.124 1.5 1.5 0 00-.416.363v-2.275h-.98v7.07h.98v-.402c.127.16.265.277.414.353.148.076.317.114.507.114.287 0 .506-.098.658-.295zm-.77-.993c0 .166-.028.286-.084.36-.056.073-.143.11-.261.11a.513.513 0 01-.235-.057.845.845 0 01-.23-.183v-3.25a.717.717 0 01.2-.16.448.448 0 01.206-.05c.131 0 .232.045.3.136.07.091.104.225.104.401v2.693zm-3.704 1.222h.97v-5.215h-.97v3.959a1.356 1.356 0 01-.3.28c-.109.074-.199.11-.27.11-.091 0-.157-.027-.197-.083-.041-.055-.061-.144-.061-.268v-3.998h-.97v4.36c0 .31.057.542.17.698.114.155.283.233.507.233.182 0 .37-.056.563-.167a2.13 2.13 0 00.558-.484v.575zm-2.914-6.043h1.13v-1.026h-3.352v1.026h1.13v6.043h1.092v-6.043zm4.844-4.394a.455.455 0 00.116-.33v-2.84a.352.352 0 00-.118-.277.45.45 0 00-.31-.105.403.403 0 00-.29.105.364.364 0 00-.11.276v2.84c0 .144.034.255.103.334.07.078.168.116.296.116.132 0 .236-.039.313-.119z" fill="currentColor"/></g></svg>
